X:WFS 13-12 18
T:Captain Lanoe's Quick March
M:6/8
K:G
[P:A] G2B d2d | gfe d3 | cec BdB |1,3 AGA B2A :|2,4 AGA G3{A} :|
[P:B] B3 B3 | BAB c3 |1 B2c d2c | B2A B2G :|2 Bdg dBG | A3 G3{A} :|

